( PCB Contour )
( Generated by Carbide Copper )
( Material Size )
( X= 70.000, Y= 100.000, Z= 1.550 )
()
M05
M6
M03S10000
G17
G21
G54
G90
G00  X4.488 Y25.700
G01 F750 Z0
G01 F400 Z-0.100
G01 F400 X4.431 Y25.689
G01 F400 X4.366 Y25.653
G01 F400 X4.316 Y25.582
G01 F400 X4.300 Y25.515
G01 F400 X4.300 Y4.488
G01 F400 X4.311 Y4.431
G01 F400 X4.347 Y4.366
G01 F400 X4.418 Y4.316
G01 F400 X4.486 Y4.300
G01 F400 X47.512 Y4.300
G01 F400 X47.569 Y4.311
G01 F400 X47.634 Y4.347
G01 F400 X47.684 Y4.418
G01 F400 X47.700 Y4.486
G01 F400 X47.700 Y25.512
G01 F400 X47.689 Y25.569
G01 F400 X47.653 Y25.634
G01 F400 X47.582 Y25.684
G01 F400 X47.515 Y25.700
G01 F400 X4.488 Y25.700
G00 Z3.000
G00  X4.883 Y25.282
G01 F750 Z0
G01 F400 Z-0.100
G01 F400 X47.117 Y25.282
G01 F400 X47.282 Y25.117
G01 F400 X47.282 Y4.883
G01 F400 X47.117 Y4.718
G01 F400 X4.883 Y4.718
G01 F400 X4.718 Y4.883
G01 F400 X4.718 Y25.117
G01 F400 X4.883 Y25.282
G00 Z3.000
G00  X5.471 Y24.718
G01 F750 Z0
G01 F400 Z-0.100
G01 F400 X5.413 Y24.707
G01 F400 X5.348 Y24.670
G01 F400 X5.298 Y24.599
G01 F400 X5.282 Y24.532
G01 F400 X5.282 Y5.471
G01 F400 X5.293 Y5.413
G01 F400 X5.330 Y5.348
G01 F400 X5.401 Y5.298
G01 F400 X5.468 Y5.282
G01 F400 X46.529 Y5.282
G01 F400 X46.587 Y5.293
G01 F400 X46.652 Y5.330
G01 F400 X46.702 Y5.401
G01 F400 X46.718 Y5.468
G01 F400 X46.718 Y24.529
G01 F400 X46.707 Y24.587
G01 F400 X46.670 Y24.652
G01 F400 X46.599 Y24.702
G01 F400 X46.532 Y24.718
G01 F400 X37.675 Y24.718
G01 F400 X37.608 Y24.702
G01 F400 X37.539 Y24.654
G01 F400 X37.500 Y24.585
G01 F400 X37.487 Y24.506
G01 F400 X37.513 Y24.418
G01 F400 X38.437 Y23.487
G01 F400 X38.498 Y23.451
G01 F400 X38.556 Y23.439
G01 F400 X40.544 Y23.439
G01 F400 X40.612 Y23.456
G01 F400 X40.661 Y23.488
G01 F400 X40.967 Y23.794
G01 F400 X41.833 Y23.794
G01 F400 X42.141 Y23.486
G01 F400 X42.200 Y23.451
G01 F400 X42.258 Y23.439
G01 F400 X43.054 Y23.439
G01 F400 X43.122 Y23.456
G01 F400 X43.171 Y23.488
G01 F400 X43.632 Y23.949
G01 F400 X44.195 Y24.182
G01 F400 X44.805 Y24.182
G01 F400 X45.368 Y23.949
G01 F400 X45.799 Y23.518
G01 F400 X46.032 Y22.955
G01 F400 X46.032 Y22.345
G01 F400 X45.799 Y21.782
G01 F400 X45.368 Y21.351
G01 F400 X44.805 Y21.118
G01 F400 X44.195 Y21.118
G01 F400 X43.632 Y21.351
G01 F400 X43.201 Y21.782
G01 F400 X43.130 Y21.953
G01 F400 X43.082 Y22.016
G01 F400 X42.999 Y22.059
G01 F400 X42.256 Y22.061
G01 F400 X42.188 Y22.044
G01 F400 X42.139 Y22.012
G01 F400 X41.833 Y21.706
G01 F400 X40.967 Y21.706
G01 F400 X40.660 Y22.014
G01 F400 X40.600 Y22.049
G01 F400 X40.542 Y22.061
G01 F400 X38.294 Y22.061
G01 F400 X38.227 Y22.045
G01 F400 X38.159 Y21.998
G01 F400 X38.119 Y21.928
G01 F400 X38.106 Y21.850
G01 F400 X38.132 Y21.762
G01 F400 X38.853 Y21.034
G01 F400 X38.913 Y20.998
G01 F400 X38.971 Y20.986
G01 F400 X43.297 Y20.986
G01 F400 X43.475 Y20.912
G01 F400 X43.640 Y20.747
G01 F400 X43.640 Y20.747
G01 F400 X43.880 Y20.507
G01 F400 X43.949 Y20.468
G01 F400 X44.041 Y20.459
G01 F400 X44.345 Y20.582
G01 F400 X44.955 Y20.582
G01 F400 X45.518 Y20.349
G01 F400 X45.949 Y19.918
G01 F400 X46.182 Y19.355
G01 F400 X46.182 Y18.745
G01 F400 X45.949 Y18.182
G01 F400 X45.518 Y17.751
G01 F400 X44.955 Y17.518
G01 F400 X44.345 Y17.518
G01 F400 X43.782 Y17.751
G01 F400 X43.351 Y18.182
G01 F400 X43.118 Y18.745
G01 F400 X43.118 Y19.355
G01 F400 X43.231 Y19.629
G01 F400 X43.241 Y19.708
G01 F400 X43.214 Y19.796
G01 F400 X43.047 Y19.966
G01 F400 X42.987 Y20.002
G01 F400 X42.929 Y20.014
G01 F400 X40.897 Y20.014
G01 F400 X40.840 Y20.004
G01 F400 X40.774 Y19.967
G01 F400 X40.725 Y19.896
G01 F400 X40.709 Y19.829
G01 F400 X40.709 Y18.821
G01 F400 X40.719 Y18.764
G01 F400 X40.756 Y18.698
G01 F400 X40.827 Y18.648
G01 F400 X40.891 Y18.633
G01 F400 X41.057 Y18.467
G01 F400 X41.057 Y18.197
G01 F400 X41.075 Y18.129
G01 F400 X41.107 Y18.080
G01 F400 X43.930 Y15.257
G01 F400 X43.999 Y15.218
G01 F400 X44.091 Y15.209
G01 F400 X44.395 Y15.332
G01 F400 X45.005 Y15.332
G01 F400 X45.568 Y15.099
G01 F400 X45.999 Y14.668
G01 F400 X46.232 Y14.105
G01 F400 X46.232 Y13.495
G01 F400 X45.999 Y12.932
G01 F400 X45.568 Y12.501
G01 F400 X45.005 Y12.268
G01 F400 X44.395 Y12.268
G01 F400 X43.832 Y12.501
G01 F400 X43.401 Y12.932
G01 F400 X43.168 Y13.495
G01 F400 X43.168 Y14.105
G01 F400 X43.281 Y14.379
G01 F400 X43.291 Y14.458
G01 F400 X43.264 Y14.547
G01 F400 X40.570 Y17.244
G01 F400 X40.510 Y17.279
G01 F400 X40.452 Y17.291
G01 F400 X39.871 Y17.291
G01 F400 X39.567 Y17.596
G01 F400 X39.514 Y17.634
G01 F400 X39.451 Y17.662
G01 F400 X39.384 Y17.676
G01 F400 X39.049 Y17.676
G01 F400 X39.049 Y17.824
G01 F400 X38.141 Y17.824
G01 F400 X38.153 Y17.861
G01 F400 X38.150 Y17.941
G01 F400 X38.109 Y18.017
G01 F400 X38.009 Y18.117
G01 F400 X37.949 Y18.152
G01 F400 X37.891 Y18.164
G01 F400 X37.654 Y18.164
G01 F400 X37.475 Y18.238
G01 F400 X37.310 Y18.403
G01 F400 X37.288 Y18.425
G01 F400 X37.215 Y18.603
G01 F400 X37.170 Y18.662
G01 F400 X37.094 Y18.706
G01 F400 X37.018 Y18.712
G01 F400 X36.945 Y18.693
G01 F400 X36.878 Y18.637
G01 F400 X36.837 Y18.558
G01 F400 X36.836 Y17.843
G01 F400 X36.853 Y17.775
G01 F400 X36.885 Y17.726
G01 F400 X37.016 Y17.595
G01 F400 X37.136 Y17.306
G01 F400 X37.136 Y16.994
G01 F400 X37.016 Y16.705
G01 F400 X36.795 Y16.484
G01 F400 X36.694 Y16.442
G01 F400 X36.652 Y16.415
G01 F400 X36.597 Y16.360
G01 F400 X36.404 Y16.167
G01 F400 X36.368 Y16.108
G01 F400 X36.352 Y16.027
G01 F400 X36.374 Y15.949
G01 F400 X36.420 Y15.884
G01 F400 X36.501 Y15.840
G01 F400 X39.246 Y15.836
G01 F400 X39.425 Y15.762
G01 F400 X39.857 Y15.330
G01 F400 X39.916 Y15.294
G01 F400 X39.975 Y15.282
G01 F400 X40.617 Y15.282
G01 F400 X40.782 Y15.117
G01 F400 X40.782 Y13.283
G01 F400 X40.617 Y13.118
G01 F400 X38.583 Y13.118
G01 F400 X38.418 Y13.283
G01 F400 X38.418 Y14.676
G01 F400 X38.407 Y14.733
G01 F400 X38.370 Y14.799
G01 F400 X38.299 Y14.848
G01 F400 X38.232 Y14.864
G01 F400 X37.391 Y14.864
G01 F400 X37.324 Y14.848
G01 F400 X37.255 Y14.801
G01 F400 X37.216 Y14.732
G01 F400 X37.202 Y14.652
G01 F400 X37.228 Y14.566
G01 F400 X37.411 Y14.376
G01 F400 X37.486 Y14.197
G01 F400 X37.486 Y12.921
G01 F400 X37.496 Y12.864
G01 F400 X37.533 Y12.798
G01 F400 X37.604 Y12.748
G01 F400 X37.671 Y12.732
G01 F400 X37.917 Y12.732
G01 F400 X38.082 Y12.567
G01 F400 X38.082 Y12.450
G01 F400 X38.098 Y12.383
G01 F400 X38.146 Y12.315
G01 F400 X38.215 Y12.275
G01 F400 X38.294 Y12.262
G01 F400 X38.381 Y12.288
G01 F400 X38.582 Y12.482
G01 F400 X40.617 Y12.482
G01 F400 X40.782 Y12.317
G01 F400 X40.782 Y10.483
G01 F400 X40.617 Y10.318
G01 F400 X38.583 Y10.318
G01 F400 X38.358 Y10.542
G01 F400 X38.310 Y10.575
G01 F400 X38.238 Y10.596
G01 F400 X38.153 Y10.581
G01 F400 X38.094 Y10.544
G01 F400 X37.917 Y10.368
G01 F400 X36.083 Y10.368
G01 F400 X35.982 Y10.469
G01 F400 X35.922 Y10.505
G01 F400 X35.864 Y10.517
G01 F400 X33.362 Y10.517
G01 F400 X33.360 Y10.519
G01 F400 X33.349 Y10.526
G01 F400 X35.124 Y10.526
G01 F400 X35.124 Y12.574
G01 F400 X33.276 Y12.574
G01 F400 X33.276 Y11.876
G01 F400 X33.167 Y11.876
G01 F400 X33.167 Y12.784
G01 F400 X33.156 Y12.841
G01 F400 X33.119 Y12.906
G01 F400 X33.048 Y12.956
G01 F400 X32.981 Y12.972
G01 F400 X32.627 Y12.972
G01 F400 X32.627 Y15.207
G01 F400 X32.621 Y15.268
G01 F400 X32.600 Y15.333
G01 F400 X32.590 Y15.350
G01 F400 X32.600 Y15.367
G01 F400 X32.621 Y15.432
G01 F400 X32.627 Y15.494
G01 F400 X32.627 Y17.480
G01 F400 X32.648 Y17.512
G01 F400 X32.671 Y17.581
G01 F400 X32.678 Y17.649
G01 F400 X32.671 Y17.717
G01 F400 X32.667 Y17.728
G01 F400 X33.367 Y17.728
G01 F400 X33.434 Y17.744
G01 F400 X33.502 Y17.791
G01 F400 X33.542 Y17.861
G01 F400 X33.555 Y17.940
G01 F400 X33.530 Y18.024
G01 F400 X33.456 Y18.108
G01 F400 X33.288 Y18.275
G01 F400 X33.213 Y18.456
G01 F400 X33.212 Y18.474
G01 F400 X33.192 Y18.546
G01 F400 X33.139 Y18.606
G01 F400 X33.068 Y18.643
G01 F400 X32.985 Y18.647
G01 F400 X32.907 Y18.620
G01 F400 X32.874 Y18.588
G01 F400 X32.874 Y20.310
G01 F400 X32.883 Y20.301
G01 F400 X32.942 Y20.265
G01 F400 X33.023 Y20.249
G01 F400 X33.101 Y20.271
G01 F400 X33.166 Y20.317
G01 F400 X33.209 Y20.397
G01 F400 X33.214 Y20.796
G01 F400 X33.288 Y20.975
G01 F400 X34.025 Y21.712
G01 F400 X34.203 Y21.785
G01 F400 X34.262 Y21.830
G01 F400 X34.306 Y21.906
G01 F400 X34.312 Y21.982
G01 F400 X34.293 Y22.055
G01 F400 X34.237 Y22.122
G01 F400 X34.158 Y22.163
G01 F400 X30.969 Y22.164
G01 F400 X30.901 Y22.147
G01 F400 X30.852 Y22.115
G01 F400 X29.433 Y20.697
G01 F400 X29.398 Y20.637
G01 F400 X29.386 Y20.579
G01 F400 X29.386 Y20.394
G01 F400 X29.266 Y20.105
G01 F400 X29.045 Y19.884
G01 F400 X28.756 Y19.764
G01 F400 X28.444 Y19.764
G01 F400 X28.155 Y19.884
G01 F400 X28.072 Y19.967
G01 F400 X28.012 Y20.002
G01 F400 X27.954 Y20.014
G01 F400 X26.504 Y20.014
G01 F400 X26.325 Y20.088
G01 F400 X26.160 Y20.253
G01 F400 X26.160 Y20.253
G01 F400 X23.797 Y22.617
G01 F400 X23.737 Y22.652
G01 F400 X23.679 Y22.664
G01 F400 X22.947 Y22.664
G01 F400 X22.890 Y22.654
G01 F400 X22.824 Y22.617
G01 F400 X22.775 Y22.546
G01 F400 X22.759 Y22.479
G01 F400 X22.759 Y22.219
G01 F400 X22.769 Y22.161
G01 F400 X22.806 Y22.096
G01 F400 X22.877 Y22.046
G01 F400 X22.933 Y22.033
G01 F400 X22.978 Y22.024
G01 F400 X21.926 Y22.024
G01 F400 X21.926 Y20.887
G01 F400 X21.923 Y20.857
G01 F400 X21.923 Y17.040
G01 F400 X21.917 Y17.046
G01 F400 X21.864 Y17.084
G01 F400 X21.801 Y17.112
G01 F400 X21.734 Y17.126
G01 F400 X21.578 Y17.126
G01 F400 X21.578 Y17.178
G01 F400 X20.352 Y17.178
G01 F400 X20.352 Y17.126
G01 F400 X19.736 Y17.126
G01 F400 X19.677 Y17.185
G01 F400 X19.677 Y17.424
G01 F400 X20.352 Y17.424
G01 F400 X20.352 Y17.372
G01 F400 X21.578 Y17.372
G01 F400 X21.578 Y18.128
G01 F400 X20.352 Y18.128
G01 F400 X20.352 Y18.076
G01 F400 X19.473 Y18.076
G01 F400 X19.471 Y18.083
G01 F400 X19.435 Y18.149
G01 F400 X19.364 Y18.198
G01 F400 X19.297 Y18.214
G01 F400 X18.022 Y18.214
G01 F400 X17.964 Y18.204
G01 F400 X17.899 Y18.167
G01 F400 X17.849 Y18.096
G01 F400 X17.833 Y18.029
G01 F400 X17.833 Y15.362
G01 F400 X17.638 Y15.167
G01 F400 X17.438 Y15.167
G01 F400 X17.324 Y15.265
G01 F400 X17.324 Y16.224
G01 F400 X15.476 Y16.224
G01 F400 X15.476 Y15.132
G01 F400 X15.437 Y15.155
G01 F400 X15.379 Y15.167
G01 F400 X15.112 Y15.167
G01 F400 X14.917 Y15.362
G01 F400 X14.917 Y18.138
G01 F400 X15.112 Y18.333
G01 F400 X15.129 Y18.333
G01 F400 X15.187 Y18.344
G01 F400 X15.252 Y18.381
G01 F400 X15.302 Y18.452
G01 F400 X15.318 Y18.519
G01 F400 X15.318 Y19.317
G01 F400 X15.483 Y19.482
G01 F400 X17.317 Y19.482
G01 F400 X17.507 Y19.293
G01 F400 X17.521 Y19.264
G01 F400 X17.573 Y19.216
G01 F400 X17.640 Y19.187
G01 F400 X18.887 Y19.186
G01 F400 X18.945 Y19.196
G01 F400 X19.010 Y19.233
G01 F400 X19.060 Y19.304
G01 F400 X19.076 Y19.371
G01 F400 X19.076 Y19.829
G01 F400 X19.065 Y19.887
G01 F400 X19.028 Y19.952
G01 F400 X18.957 Y20.002
G01 F400 X18.890 Y20.018
G01 F400 X18.833 Y20.018
G01 F400 X18.668 Y20.183
G01 F400 X18.668 Y22.017
G01 F400 X18.833 Y22.182
G01 F400 X19.967 Y22.182
G01 F400 X20.133 Y22.017
G01 F400 X20.192 Y21.980
G01 F400 X20.274 Y21.965
G01 F400 X20.351 Y21.986
G01 F400 X20.416 Y22.033
G01 F400 X20.460 Y22.113
G01 F400 X20.464 Y22.446
G01 F400 X20.538 Y22.625
G01 F400 X21.043 Y23.130
G01 F400 X21.079 Y23.189
G01 F400 X21.095 Y23.270
G01 F400 X21.073 Y23.348
G01 F400 X21.027 Y23.413
G01 F400 X20.946 Y23.457
G01 F400 X17.603 Y23.461
G01 F400 X17.535 Y23.444
G01 F400 X17.486 Y23.412
G01 F400 X14.890 Y20.816
G01 F400 X14.637 Y20.711
G01 F400 X8.356 Y20.711
G01 F400 X8.288 Y20.694
G01 F400 X8.239 Y20.662
G01 F400 X7.933 Y20.356
G01 F400 X7.067 Y20.356
G01 F400 X6.456 Y20.967
G01 F400 X6.456 Y21.833
G01 F400 X7.067 Y22.444
G01 F400 X7.933 Y22.444
G01 F400 X8.241 Y22.137
G01 F400 X8.300 Y22.101
G01 F400 X8.358 Y22.089
G01 F400 X14.147 Y22.089
G01 F400 X14.215 Y22.106
G01 F400 X14.264 Y22.138
G01 F400 X16.512 Y24.386
G01 F400 X16.548 Y24.445
G01 F400 X16.563 Y24.527
G01 F400 X16.542 Y24.604
G01 F400 X16.495 Y24.669
G01 F400 X16.415 Y24.713
G01 F400 X5.471 Y24.718
G00 Z3.000
G00  X17.195 Y24.678
G01 F750 Z0
G01 F400 Z-0.100
G01 F400 X17.086 Y24.655
G01 F400 X16.984 Y24.610
G01 F400 X16.897 Y24.547
G01 F400 X14.279 Y21.928
G01 F400 X8.217 Y21.928
G01 F400 X8.077 Y22.166
G01 F400 X7.367 Y22.350
G01 F400 X6.734 Y21.977
G01 F400 X6.550 Y21.267
G01 F400 X6.923 Y20.634
G01 F400 X7.634 Y20.450
G01 F400 X8.266 Y20.823
G01 F400 X8.279 Y20.872
G01 F400 X14.556 Y20.872
G01 F400 X14.664 Y20.895
G01 F400 X14.766 Y20.940
G01 F400 X14.853 Y21.003
G01 F400 X17.471 Y23.622
G01 F400 X36.579 Y23.622
G01 F400 X37.847 Y22.353
G01 F400 X37.934 Y22.290
G01 F400 X38.036 Y22.245
G01 F400 X38.145 Y22.222
G01 F400 X40.683 Y22.222
G01 F400 X40.823 Y21.984
G01 F400 X41.534 Y21.800
G01 F400 X42.166 Y22.173
G01 F400 X42.179 Y22.222
G01 F400 X43.202 Y22.222
G01 F400 X43.244 Y22.091
G01 F400 X43.388 Y21.842
G01 F400 X43.580 Y21.628
G01 F400 X43.813 Y21.459
G01 F400 X44.075 Y21.343
G01 F400 X44.356 Y21.283
G01 F400 X44.644 Y21.283
G01 F400 X44.925 Y21.343
G01 F400 X45.187 Y21.459
G01 F400 X45.420 Y21.628
G01 F400 X45.612 Y21.842
G01 F400 X45.756 Y22.091
G01 F400 X45.845 Y22.364
G01 F400 X45.875 Y22.650
G01 F400 X45.845 Y22.936
G01 F400 X45.756 Y23.209
G01 F400 X45.612 Y23.458
G01 F400 X45.420 Y23.672
G01 F400 X45.187 Y23.841
G01 F400 X44.925 Y23.957
G01 F400 X44.644 Y24.017
G01 F400 X44.356 Y24.017
G01 F400 X44.075 Y23.957
G01 F400 X43.813 Y23.841
G01 F400 X43.580 Y23.672
G01 F400 X43.388 Y23.458
G01 F400 X43.286 Y23.282
G01 F400 X42.115 Y23.282
G01 F400 X41.977 Y23.516
G01 F400 X41.267 Y23.700
G01 F400 X40.634 Y23.327
G01 F400 X40.622 Y23.280
G01 F400 X38.421 Y23.278
G01 F400 X37.153 Y24.547
G01 F400 X37.066 Y24.610
G01 F400 X36.964 Y24.655
G01 F400 X36.855 Y24.678
G01 F400 X17.195 Y24.678
G00 Z3.000
G00  X21.716 Y23.476
G01 F750 Z0
G01 F400 Z-0.100
G01 F400 X21.649 Y23.462
G01 F400 X21.586 Y23.434
G01 F400 X21.533 Y23.396
G01 F400 X20.724 Y22.587
G01 F400 X20.685 Y22.543
G01 F400 X20.650 Y22.483
G01 F400 X20.629 Y22.418
G01 F400 X20.623 Y22.357
G01 F400 X20.623 Y19.078
G01 F400 X20.352 Y19.078
G01 F400 X20.352 Y19.029
G01 F400 X19.889 Y19.027
G01 F400 X19.889 Y20.176
G01 F400 X19.974 Y20.176
G01 F400 X19.974 Y22.024
G01 F400 X18.826 Y22.024
G01 F400 X18.826 Y20.176
G01 F400 X19.234 Y20.176
G01 F400 X19.234 Y19.026
G01 F400 X17.324 Y19.026
G01 F400 X17.324 Y19.324
G01 F400 X15.476 Y19.324
G01 F400 X15.476 Y18.176
G01 F400 X17.324 Y18.176
G01 F400 X17.324 Y18.374
G01 F400 X20.352 Y18.374
G01 F400 X20.352 Y18.322
G01 F400 X21.578 Y18.322
G01 F400 X21.578 Y19.078
G01 F400 X21.277 Y19.078
G01 F400 X21.277 Y22.215
G01 F400 X21.886 Y22.824
G01 F400 X23.814 Y22.824
G01 F400 X26.383 Y20.254
G01 F400 X26.436 Y20.216
G01 F400 X26.499 Y20.188
G01 F400 X26.566 Y20.174
G01 F400 X28.098 Y20.174
G01 F400 X28.180 Y20.083
G01 F400 X28.286 Y20.006
G01 F400 X28.406 Y19.953
G01 F400 X28.534 Y19.925
G01 F400 X28.666 Y19.925
G01 F400 X28.794 Y19.953
G01 F400 X28.914 Y20.006
G01 F400 X29.020 Y20.083
G01 F400 X29.108 Y20.181
G01 F400 X29.174 Y20.295
G01 F400 X29.214 Y20.419
G01 F400 X29.228 Y20.550
G01 F400 X29.214 Y20.681
G01 F400 X29.209 Y20.697
G01 F400 X30.836 Y22.324
G01 F400 X36.414 Y22.324
G01 F400 X38.483 Y20.254
G01 F400 X38.536 Y20.216
G01 F400 X38.599 Y20.188
G01 F400 X38.666 Y20.174
G01 F400 X43.064 Y20.174
G01 F400 X43.480 Y19.758
G01 F400 X43.394 Y19.609
G01 F400 X43.305 Y19.336
G01 F400 X43.275 Y19.050
G01 F400 X43.305 Y18.764
G01 F400 X43.394 Y18.491
G01 F400 X43.538 Y18.242
G01 F400 X43.730 Y18.028
G01 F400 X43.963 Y17.859
G01 F400 X44.225 Y17.742
G01 F400 X44.506 Y17.683
G01 F400 X44.794 Y17.683
G01 F400 X45.075 Y17.742
G01 F400 X45.337 Y17.859
G01 F400 X45.570 Y18.028
G01 F400 X45.762 Y18.242
G01 F400 X45.906 Y18.491
G01 F400 X45.995 Y18.764
G01 F400 X46.025 Y19.050
G01 F400 X45.995 Y19.336
G01 F400 X45.906 Y19.609
G01 F400 X45.762 Y19.858
G01 F400 X45.570 Y20.072
G01 F400 X45.337 Y20.241
G01 F400 X45.075 Y20.358
G01 F400 X44.794 Y20.417
G01 F400 X44.506 Y20.417
G01 F400 X44.225 Y20.358
G01 F400 X43.963 Y20.241
G01 F400 X43.939 Y20.224
G01 F400 X43.417 Y20.746
G01 F400 X43.364 Y20.784
G01 F400 X43.301 Y20.812
G01 F400 X43.234 Y20.826
G01 F400 X38.836 Y20.826
G01 F400 X36.767 Y22.896
G01 F400 X36.714 Y22.934
G01 F400 X36.651 Y22.962
G01 F400 X36.584 Y22.976
G01 F400 X30.666 Y22.976
G01 F400 X30.599 Y22.962
G01 F400 X30.536 Y22.934
G01 F400 X30.483 Y22.896
G01 F400 X28.745 Y21.158
G01 F400 X28.666 Y21.175
G01 F400 X28.534 Y21.175
G01 F400 X28.406 Y21.147
G01 F400 X28.286 Y21.094
G01 F400 X28.180 Y21.017
G01 F400 X28.092 Y20.919
G01 F400 X28.038 Y20.826
G01 F400 X26.736 Y20.826
G01 F400 X24.167 Y23.396
G01 F400 X24.114 Y23.434
G01 F400 X24.051 Y23.462
G01 F400 X23.984 Y23.476
G01 F400 X21.716 Y23.476
G00 Z3.000
G00  X24.794 Y23.461
G01 F750 Z0
G01 F400 Z-0.100
G01 F400 X24.727 Y23.445
G01 F400 X24.659 Y23.398
G01 F400 X24.619 Y23.328
G01 F400 X24.606 Y23.250
G01 F400 X24.632 Y23.162
G01 F400 X26.753 Y21.033
G01 F400 X26.813 Y20.998
G01 F400 X26.871 Y20.986
G01 F400 X27.857 Y20.986
G01 F400 X27.925 Y21.003
G01 F400 X27.974 Y21.035
G01 F400 X28.155 Y21.216
G01 F400 X28.444 Y21.336
G01 F400 X28.631 Y21.336
G01 F400 X28.699 Y21.353
G01 F400 X28.748 Y21.385
G01 F400 X30.260 Y22.897
G01 F400 X30.425 Y23.062
G01 F400 X30.474 Y23.082
G01 F400 X30.534 Y23.127
G01 F400 X30.578 Y23.203
G01 F400 X30.584 Y23.278
G01 F400 X30.565 Y23.352
G01 F400 X30.509 Y23.419
G01 F400 X30.430 Y23.459
G01 F400 X24.794 Y23.461
G00 Z3.000
G00  X23.074 Y21.941
G01 F750 Z0
G01 F400 Z-0.100
G01 F400 X23.080 Y21.917
G01 F400 X23.080 Y21.467
G01 F400 X23.074 Y21.941
G00 Z3.000
G00  X34.266 Y21.626
G01 F750 Z0
G01 F400 Z-0.100
G01 F400 X34.199 Y21.612
G01 F400 X34.136 Y21.584
G01 F400 X34.083 Y21.546
G01 F400 X33.474 Y20.937
G01 F400 X33.435 Y20.893
G01 F400 X33.400 Y20.833
G01 F400 X33.379 Y20.768
G01 F400 X33.373 Y20.707
G01 F400 X33.373 Y18.544
G01 F400 X33.379 Y18.482
G01 F400 X33.400 Y18.417
G01 F400 X33.435 Y18.357
G01 F400 X33.474 Y18.314
G01 F400 X34.123 Y17.665
G01 F400 X34.123 Y16.678
G01 F400 X33.112 Y16.678
G01 F400 X33.112 Y15.922
G01 F400 X34.237 Y15.922
G01 F400 X34.237 Y15.974
G01 F400 X34.259 Y15.974
G01 F400 X34.326 Y15.988
G01 F400 X34.389 Y16.016
G01 F400 X34.441 Y16.054
G01 F400 X34.676 Y16.289
G01 F400 X34.715 Y16.333
G01 F400 X34.750 Y16.392
G01 F400 X34.771 Y16.457
G01 F400 X34.777 Y16.519
G01 F400 X34.777 Y17.806
G01 F400 X34.771 Y17.868
G01 F400 X34.750 Y17.933
G01 F400 X34.715 Y17.993
G01 F400 X34.676 Y18.036
G01 F400 X34.027 Y18.685
G01 F400 X34.027 Y20.565
G01 F400 X34.436 Y20.974
G01 F400 X36.264 Y20.974
G01 F400 X37.373 Y19.865
G01 F400 X37.373 Y18.694
G01 F400 X37.379 Y18.632
G01 F400 X37.400 Y18.567
G01 F400 X37.435 Y18.507
G01 F400 X37.477 Y18.460
G01 F400 X37.499 Y18.441
G01 F400 X37.531 Y18.406
G01 F400 X37.586 Y18.366
G01 F400 X37.649 Y18.338
G01 F400 X37.716 Y18.324
G01 F400 X38.101 Y18.324
G01 F400 X38.101 Y18.176
G01 F400 X39.049 Y18.176
G01 F400 X39.049 Y19.124
G01 F400 X38.101 Y19.124
G01 F400 X38.101 Y18.976
G01 F400 X38.037 Y18.976
G01 F400 X38.027 Y20.007
G01 F400 X38.021 Y20.068
G01 F400 X38.000 Y20.133
G01 F400 X37.965 Y20.193
G01 F400 X37.926 Y20.236
G01 F400 X36.617 Y21.546
G01 F400 X36.564 Y21.584
G01 F400 X36.501 Y21.612
G01 F400 X36.434 Y21.626
G01 F400 X34.266 Y21.626
G00 Z3.000
G00  X23.074 Y20.825
G01 F750 Z0
G01 F400 Z-0.100
G01 F400 X23.080 Y20.825
G01 F400 X23.080 Y20.431
G01 F400 X23.091 Y20.373
G01 F400 X23.128 Y20.308
G01 F400 X23.198 Y20.258
G01 F400 X23.266 Y20.242
G01 F400 X24.968 Y20.242
G01 F400 X25.178 Y20.032
G01 F400 X25.178 Y19.374
G01 F400 X25.189 Y19.317
G01 F400 X25.225 Y19.251
G01 F400 X25.296 Y19.202
G01 F400 X25.364 Y19.186
G01 F400 X27.047 Y19.186
G01 F400 X27.225 Y19.112
G01 F400 X29.346 Y16.991
G01 F400 X29.405 Y16.955
G01 F400 X29.486 Y16.939
G01 F400 X29.564 Y16.961
G01 F400 X29.629 Y17.007
G01 F400 X29.673 Y17.087
G01 F400 X29.677 Y17.555
G01 F400 X29.850 Y17.728
G01 F400 X31.973 Y17.728
G01 F400 X31.973 Y15.676
G01 F400 X31.608 Y15.676
G01 F400 X31.608 Y15.728
G01 F400 X30.483 Y15.728
G01 F400 X30.483 Y15.676
G01 F400 X28.967 Y15.676
G01 F400 X28.967 Y15.929
G01 F400 X28.950 Y15.997
G01 F400 X28.917 Y16.046
G01 F400 X26.797 Y18.167
G01 F400 X26.737 Y18.202
G01 F400 X26.679 Y18.214
G01 F400 X25.366 Y18.214
G01 F400 X25.309 Y18.204
G01 F400 X25.244 Y18.167
G01 F400 X25.194 Y18.096
G01 F400 X25.189 Y18.076
G01 F400 X22.577 Y18.076
G01 F400 X22.577 Y20.176
G01 F400 X23.074 Y20.176
G01 F400 X23.074 Y20.825
G00 Z3.000
G00  X36.323 Y20.601
G01 F750 Z0
G01 F400 Z-0.100
G01 F400 X36.246 Y20.579
G01 F400 X36.181 Y20.533
G01 F400 X36.137 Y20.453
G01 F400 X36.132 Y20.059
G01 F400 X36.153 Y19.982
G01 F400 X36.212 Y19.911
G01 F400 X36.325 Y19.862
G01 F400 X36.762 Y19.425
G01 F400 X36.835 Y19.247
G01 F400 X36.880 Y19.188
G01 F400 X36.956 Y19.144
G01 F400 X37.032 Y19.138
G01 F400 X37.105 Y19.157
G01 F400 X37.172 Y19.213
G01 F400 X37.212 Y19.292
G01 F400 X37.215 Y19.731
G01 F400 X37.197 Y19.799
G01 F400 X37.165 Y19.849
G01 F400 X36.464 Y20.550
G01 F400 X36.405 Y20.586
G01 F400 X36.323 Y20.601
G00 Z3.000
G00  X32.576 Y20.380
G01 F750 Z0
G01 F400 Z-0.100
G01 F400 X32.767 Y20.380
G01 F400 X32.789 Y20.374
G01 F400 X32.576 Y20.374
G01 F400 X32.576 Y20.380
G00 Z3.000
G00  X31.833 Y20.380
G01 F750 Z0
G01 F400 Z-0.100
G01 F400 X32.024 Y20.380
G01 F400 X32.024 Y20.374
G01 F400 X31.811 Y20.374
G01 F400 X31.833 Y20.380
G00 Z3.000
G00  X34.826 Y20.374
G01 F750 Z0
G01 F400 Z-0.100
G01 F400 X34.826 Y18.526
G01 F400 X35.974 Y18.526
G01 F400 X35.974 Y19.063
G01 F400 X36.023 Y19.015
G01 F400 X36.023 Y17.684
G01 F400 X35.930 Y17.617
G01 F400 X35.842 Y17.519
G01 F400 X35.776 Y17.405
G01 F400 X35.736 Y17.281
G01 F400 X35.722 Y17.150
G01 F400 X35.736 Y17.019
G01 F400 X35.776 Y16.895
G01 F400 X35.842 Y16.781
G01 F400 X35.843 Y16.780
G01 F400 X34.763 Y15.676
G01 F400 X34.237 Y15.676
G01 F400 X34.237 Y15.728
G01 F400 X33.112 Y15.728
G01 F400 X33.112 Y14.972
G01 F400 X34.237 Y14.972
G01 F400 X34.237 Y15.024
G01 F400 X38.576 Y15.024
G01 F400 X38.576 Y13.276
G01 F400 X40.624 Y13.276
G01 F400 X40.624 Y15.124
G01 F400 X39.836 Y15.124
G01 F400 X39.829 Y15.133
G01 F400 X39.367 Y15.596
G01 F400 X39.314 Y15.634
G01 F400 X39.251 Y15.662
G01 F400 X39.184 Y15.676
G01 F400 X35.689 Y15.676
G01 F400 X36.576 Y16.564
G01 F400 X36.581 Y16.569
G01 F400 X36.664 Y16.606
G01 F400 X36.770 Y16.683
G01 F400 X36.858 Y16.781
G01 F400 X36.924 Y16.895
G01 F400 X36.964 Y17.019
G01 F400 X36.978 Y17.150
G01 F400 X36.964 Y17.281
G01 F400 X36.924 Y17.405
G01 F400 X36.858 Y17.519
G01 F400 X36.770 Y17.617
G01 F400 X36.677 Y17.684
G01 F400 X36.677 Y19.157
G01 F400 X36.671 Y19.218
G01 F400 X36.650 Y19.283
G01 F400 X36.615 Y19.343
G01 F400 X36.576 Y19.386
G01 F400 X36.267 Y19.696
G01 F400 X36.214 Y19.734
G01 F400 X36.151 Y19.762
G01 F400 X36.084 Y19.776
G01 F400 X35.974 Y19.776
G01 F400 X35.974 Y20.374
G01 F400 X34.826 Y20.374
G00 Z3.000
G00  X31.726 Y20.289
G01 F750 Z0
G01 F400 Z-0.100
G01 F400 X31.726 Y19.726
G01 F400 X31.720 Y19.726
G01 F400 X31.720 Y20.267
G01 F400 X31.726 Y20.289
G00 Z3.000
G00  X31.720 Y19.174
G01 F750 Z0
G01 F400 Z-0.100
G01 F400 X31.726 Y19.174
G01 F400 X31.726 Y18.611
G01 F400 X31.720 Y18.633
G01 F400 X31.720 Y19.174
G00 Z3.000
G00  X23.082 Y19.078
G01 F750 Z0
G01 F400 Z-0.100
G01 F400 X23.082 Y18.322
G01 F400 X24.308 Y18.322
G01 F400 X24.308 Y18.374
G01 F400 X26.814 Y18.374
G01 F400 X29.133 Y16.054
G01 F400 X29.186 Y16.016
G01 F400 X29.249 Y15.988
G01 F400 X29.316 Y15.974
G01 F400 X30.483 Y15.974
G01 F400 X30.483 Y15.922
G01 F400 X31.608 Y15.922
G01 F400 X31.608 Y16.678
G01 F400 X30.483 Y16.678
G01 F400 X30.483 Y16.626
G01 F400 X29.486 Y16.626
G01 F400 X27.167 Y18.946
G01 F400 X27.114 Y18.984
G01 F400 X27.051 Y19.012
G01 F400 X26.984 Y19.026
G01 F400 X24.308 Y19.026
G01 F400 X24.308 Y19.078
G01 F400 X23.082 Y19.078
G00 Z3.000
G00  X32.633 Y18.526
G01 F750 Z0
G01 F400 Z-0.100
G01 F400 X32.789 Y18.526
G01 F400 X32.767 Y18.520
G01 F400 X32.634 Y18.520
G01 F400 X32.633 Y18.526
G00 Z3.000
G00  X31.811 Y18.526
G01 F750 Z0
G01 F400 Z-0.100
G01 F400 X31.973 Y18.526
G01 F400 X31.973 Y18.520
G01 F400 X31.833 Y18.520
G01 F400 X31.811 Y18.526
G00 Z3.000
G00  X39.951 Y18.474
G01 F750 Z0
G01 F400 Z-0.100
G01 F400 X39.951 Y17.526
G01 F400 X40.501 Y17.526
G01 F400 X43.530 Y14.508
G01 F400 X43.444 Y14.359
G01 F400 X43.355 Y14.086
G01 F400 X43.325 Y13.800
G01 F400 X43.355 Y13.514
G01 F400 X43.444 Y13.241
G01 F400 X43.588 Y12.992
G01 F400 X43.780 Y12.778
G01 F400 X44.013 Y12.609
G01 F400 X44.275 Y12.492
G01 F400 X44.556 Y12.433
G01 F400 X44.844 Y12.433
G01 F400 X45.125 Y12.492
G01 F400 X45.387 Y12.609
G01 F400 X45.620 Y12.778
G01 F400 X45.812 Y12.992
G01 F400 X45.956 Y13.241
G01 F400 X46.045 Y13.514
G01 F400 X46.075 Y13.800
G01 F400 X46.045 Y14.086
G01 F400 X45.956 Y14.359
G01 F400 X45.812 Y14.608
G01 F400 X45.620 Y14.822
G01 F400 X45.387 Y14.991
G01 F400 X45.125 Y15.107
G01 F400 X44.844 Y15.167
G01 F400 X44.556 Y15.167
G01 F400 X44.275 Y15.107
G01 F400 X44.013 Y14.991
G01 F400 X43.989 Y14.973
G01 F400 X40.899 Y18.063
G01 F400 X40.899 Y18.474
G01 F400 X39.951 Y18.474
G00 Z3.000
G00  X38.101 Y17.739
G01 F750 Z0
G01 F400 Z-0.100
G01 F400 X38.101 Y17.591
G01 F400 X38.095 Y17.595
G01 F400 X38.095 Y17.717
G01 F400 X38.101 Y17.739
G00 Z3.000
G00  X22.577 Y17.424
G01 F750 Z0
G01 F400 Z-0.100
G01 F400 X25.178 Y17.424
G01 F400 X25.178 Y17.411
G01 F400 X25.199 Y17.334
G01 F400 X25.258 Y17.263
G01 F400 X25.375 Y17.212
G01 F400 X26.111 Y16.475
G01 F400 X26.186 Y16.297
G01 F400 X26.186 Y11.604
G01 F400 X26.111 Y11.425
G01 F400 X25.325 Y10.639
G01 F400 X25.146 Y10.564
G01 F400 X24.971 Y10.564
G01 F400 X24.914 Y10.554
G01 F400 X24.848 Y10.517
G01 F400 X24.798 Y10.446
G01 F400 X24.782 Y10.379
G01 F400 X24.782 Y10.133
G01 F400 X24.617 Y9.968
G01 F400 X22.583 Y9.968
G01 F400 X22.418 Y10.133
G01 F400 X22.418 Y10.226
G01 F400 X22.407 Y10.283
G01 F400 X22.370 Y10.349
G01 F400 X22.299 Y10.398
G01 F400 X22.232 Y10.414
G01 F400 X21.581 Y10.414
G01 F400 X21.514 Y10.397
G01 F400 X21.464 Y10.365
G01 F400 X21.267 Y10.168
G01 F400 X19.433 Y10.168
G01 F400 X19.268 Y10.333
G01 F400 X19.268 Y10.456
G01 F400 X19.257 Y10.513
G01 F400 X19.220 Y10.579
G01 F400 X19.149 Y10.628
G01 F400 X19.082 Y10.644
G01 F400 X18.851 Y10.644
G01 F400 X18.794 Y10.634
G01 F400 X18.728 Y10.597
G01 F400 X18.678 Y10.526
G01 F400 X18.662 Y10.459
G01 F400 X18.662 Y10.113
G01 F400 X18.497 Y9.948
G01 F400 X16.663 Y9.948
G01 F400 X16.498 Y10.113
G01 F400 X16.498 Y12.147
G01 F400 X16.663 Y12.312
G01 F400 X18.497 Y12.312
G01 F400 X18.662 Y12.147
G01 F400 X18.662 Y11.804
G01 F400 X18.673 Y11.747
G01 F400 X18.710 Y11.681
G01 F400 X18.781 Y11.632
G01 F400 X18.848 Y11.616
G01 F400 X18.953 Y11.616
G01 F400 X19.010 Y11.626
G01 F400 X19.076 Y11.663
G01 F400 X19.125 Y11.734
G01 F400 X19.141 Y11.801
G01 F400 X19.141 Y12.534
G01 F400 X19.124 Y12.602
G01 F400 X19.092 Y12.651
G01 F400 X19.091 Y12.652
G01 F400 X19.091 Y13.049
G01 F400 X19.326 Y13.283
G01 F400 X19.352 Y13.295
G01 F400 X19.404 Y13.349
G01 F400 X19.430 Y13.426
G01 F400 X21.236 Y13.426
G01 F400 X21.225 Y13.394
G01 F400 X21.228 Y13.314
G01 F400 X21.269 Y13.238
G01 F400 X21.509 Y12.999
G01 F400 X21.509 Y11.574
G01 F400 X21.519 Y11.517
G01 F400 X21.556 Y11.451
G01 F400 X21.627 Y11.402
G01 F400 X21.694 Y11.386
G01 F400 X22.229 Y11.386
G01 F400 X22.287 Y11.396
G01 F400 X22.352 Y11.433
G01 F400 X22.402 Y11.504
G01 F400 X22.419 Y11.579
G01 F400 X22.411 Y11.649
G01 F400 X22.382 Y11.708
G01 F400 X22.341 Y11.750
G01 F400 X22.341 Y13.399
G01 F400 X22.522 Y13.579
G01 F400 X22.532 Y13.596
G01 F400 X22.576 Y13.597
G01 F400 X22.576 Y12.926
G01 F400 X24.624 Y12.926
G01 F400 X24.624 Y13.575
G01 F400 X24.630 Y13.575
G01 F400 X24.630 Y13.445
G01 F400 X24.647 Y13.377
G01 F400 X24.680 Y13.328
G01 F400 X24.809 Y13.199
G01 F400 X24.809 Y11.964
G01 F400 X24.825 Y11.897
G01 F400 X24.872 Y11.828
G01 F400 X24.942 Y11.789
G01 F400 X25.020 Y11.776
G01 F400 X25.099 Y11.799
G01 F400 X25.162 Y11.846
G01 F400 X25.202 Y11.913
G01 F400 X25.214 Y11.971
G01 F400 X25.214 Y15.069
G01 F400 X25.204 Y15.127
G01 F400 X25.167 Y15.192
G01 F400 X25.096 Y15.242
G01 F400 X25.029 Y15.258
G01 F400 X22.527 Y15.258
G01 F400 X22.527 Y16.181
G01 F400 X22.549 Y16.213
G01 F400 X22.571 Y16.282
G01 F400 X22.577 Y16.344
G01 F400 X22.577 Y17.424
G00 Z3.000
G00  X23.082 Y17.178
G01 F750 Z0
G01 F400 Z-0.100
G01 F400 X23.082 Y16.422
G01 F400 X24.308 Y16.422
G01 F400 X24.308 Y16.474
G01 F400 X24.964 Y16.474
G01 F400 X25.373 Y16.065
G01 F400 X25.373 Y11.835
G01 F400 X24.914 Y11.376
G01 F400 X24.624 Y11.376
G01 F400 X24.624 Y11.974
G01 F400 X22.576 Y11.974
G01 F400 X22.576 Y11.226
G01 F400 X21.274 Y11.226
G01 F400 X21.274 Y11.474
G01 F400 X19.549 Y11.474
G01 F400 X18.504 Y11.458
G01 F400 X18.504 Y12.154
G01 F400 X16.656 Y12.154
G01 F400 X16.656 Y10.106
G01 F400 X18.504 Y10.106
G01 F400 X18.504 Y10.804
G01 F400 X19.426 Y10.804
G01 F400 X19.426 Y10.326
G01 F400 X21.274 Y10.326
G01 F400 X21.274 Y10.574
G01 F400 X22.576 Y10.574
G01 F400 X22.576 Y10.126
G01 F400 X24.624 Y10.126
G01 F400 X24.624 Y10.724
G01 F400 X25.084 Y10.724
G01 F400 X25.151 Y10.738
G01 F400 X25.214 Y10.766
G01 F400 X25.267 Y10.804
G01 F400 X25.926 Y11.463
G01 F400 X25.965 Y11.507
G01 F400 X26.000 Y11.567
G01 F400 X26.021 Y11.632
G01 F400 X26.027 Y11.694
G01 F400 X26.027 Y16.207
G01 F400 X26.021 Y16.268
G01 F400 X26.000 Y16.333
G01 F400 X25.965 Y16.393
G01 F400 X25.926 Y16.436
G01 F400 X25.317 Y17.046
G01 F400 X25.264 Y17.084
G01 F400 X25.201 Y17.112
G01 F400 X25.134 Y17.126
G01 F400 X24.308 Y17.126
G01 F400 X24.308 Y17.178
G01 F400 X23.082 Y17.178
G00 Z3.000
G00  X38.095 Y17.074
G01 F750 Z0
G01 F400 Z-0.100
G01 F400 X38.101 Y17.074
G01 F400 X38.101 Y16.961
G01 F400 X38.095 Y16.983
G01 F400 X38.095 Y17.074
G00 Z3.000
G00  X39.049 Y17.024
G01 F750 Z0
G01 F400 Z-0.100
G01 F400 X39.055 Y17.024
G01 F400 X39.055 Y16.983
G01 F400 X39.049 Y16.961
G01 F400 X39.049 Y17.024
G00 Z3.000
G00  X35.237 Y16.892
G01 F750 Z0
G01 F400 Z-0.100
G01 F400 X35.174 Y16.881
G01 F400 X35.108 Y16.844
G01 F400 X35.059 Y16.773
G01 F400 X35.043 Y16.706
G01 F400 X35.043 Y16.648
G01 F400 X35.059 Y16.581
G01 F400 X35.106 Y16.512
G01 F400 X35.176 Y16.473
G01 F400 X35.254 Y16.460
G01 F400 X35.338 Y16.484
G01 F400 X35.421 Y16.556
G01 F400 X35.459 Y16.619
G01 F400 X35.475 Y16.701
G01 F400 X35.453 Y16.778
G01 F400 X35.407 Y16.843
G01 F400 X35.331 Y16.884
G01 F400 X35.237 Y16.892
G00 Z3.000
G00  X38.851 Y16.876
G01 F750 Z0
G01 F400 Z-0.100
G01 F400 X38.964 Y16.876
G01 F400 X38.942 Y16.870
G01 F400 X38.851 Y16.870
G01 F400 X38.851 Y16.876
G00 Z3.000
G00  X38.186 Y16.876
G01 F750 Z0
G01 F400 Z-0.100
G01 F400 X38.299 Y16.876
G01 F400 X38.299 Y16.870
G01 F400 X38.208 Y16.870
G01 F400 X38.186 Y16.876
G00 Z3.000
G00  X19.677 Y16.474
G01 F750 Z0
G01 F400 Z-0.100
G01 F400 X20.352 Y16.474
G01 F400 X20.352 Y16.422
G01 F400 X21.578 Y16.422
G01 F400 X21.578 Y16.460
G01 F400 X21.873 Y16.165
G01 F400 X21.873 Y15.258
G01 F400 X19.692 Y15.258
G01 F400 X19.677 Y15.273
G01 F400 X19.677 Y16.474
G00 Z3.000
G00  X15.561 Y15.076
G01 F750 Z0
G01 F400 Z-0.100
G01 F400 X15.760 Y15.076
G01 F400 X15.581 Y15.071
G01 F400 X15.561 Y15.076
G00 Z3.000
G00  X28.967 Y15.024
G01 F750 Z0
G01 F400 Z-0.100
G01 F400 X30.483 Y15.024
G01 F400 X30.483 Y14.972
G01 F400 X31.608 Y14.972
G01 F400 X31.608 Y15.024
G01 F400 X31.963 Y15.024
G01 F400 X31.971 Y12.474
G01 F400 X30.776 Y12.474
G01 F400 X30.776 Y10.426
G01 F400 X32.539 Y10.426
G01 F400 X32.517 Y10.420
G01 F400 X32.224 Y10.420
G01 F400 X30.034 Y10.417
G01 F400 X29.966 Y10.400
G01 F400 X29.917 Y10.367
G01 F400 X29.817 Y10.268
G01 F400 X27.983 Y10.268
G01 F400 X27.818 Y10.433
G01 F400 X27.818 Y12.467
G01 F400 X27.983 Y12.632
G01 F400 X28.226 Y12.632
G01 F400 X28.283 Y12.643
G01 F400 X28.349 Y12.680
G01 F400 X28.398 Y12.751
G01 F400 X28.414 Y12.818
G01 F400 X28.414 Y14.197
G01 F400 X28.488 Y14.375
G01 F400 X28.919 Y14.806
G01 F400 X28.955 Y14.866
G01 F400 X28.967 Y14.924
G01 F400 X28.967 Y15.024
G00 Z3.000
G00  X23.876 Y14.780
G01 F750 Z0
G01 F400 Z-0.100
G01 F400 X24.517 Y14.780
G01 F400 X24.539 Y14.774
G01 F400 X23.876 Y14.774
G01 F400 X23.876 Y14.780
G00 Z3.000
G00  X22.683 Y14.780
G01 F750 Z0
G01 F400 Z-0.100
G01 F400 X23.324 Y14.780
G01 F400 X23.324 Y14.774
G01 F400 X22.661 Y14.774
G01 F400 X22.683 Y14.780
G00 Z3.000
G00  X30.483 Y14.778
G01 F750 Z0
G01 F400 Z-0.100
G01 F400 X30.483 Y14.726
G01 F400 X29.166 Y14.726
G01 F400 X29.099 Y14.712
G01 F400 X29.036 Y14.684
G01 F400 X28.983 Y14.646
G01 F400 X28.674 Y14.337
G01 F400 X28.635 Y14.293
G01 F400 X28.600 Y14.233
G01 F400 X28.579 Y14.168
G01 F400 X28.573 Y14.107
G01 F400 X28.573 Y12.474
G01 F400 X27.976 Y12.474
G01 F400 X27.976 Y10.426
G01 F400 X29.824 Y10.426
G01 F400 X29.824 Y12.474
G01 F400 X29.227 Y12.474
G01 F400 X29.227 Y13.965
G01 F400 X29.336 Y14.074
G01 F400 X30.483 Y14.074
G01 F400 X30.483 Y14.022
G01 F400 X31.608 Y14.022
G01 F400 X31.608 Y14.778
G01 F400 X30.483 Y14.778
G00 Z3.000
G00  X33.112 Y14.778
G01 F750 Z0
G01 F400 Z-0.100
G01 F400 X33.112 Y14.022
G01 F400 X34.237 Y14.022
G01 F400 X34.237 Y14.074
G01 F400 X36.564 Y14.074
G01 F400 X36.673 Y13.965
G01 F400 X36.673 Y12.574
G01 F400 X36.076 Y12.574
G01 F400 X36.076 Y10.526
G01 F400 X37.924 Y10.526
G01 F400 X37.924 Y11.074
G01 F400 X38.576 Y11.074
G01 F400 X38.576 Y10.476
G01 F400 X40.624 Y10.476
G01 F400 X40.624 Y12.324
G01 F400 X38.576 Y12.324
G01 F400 X38.576 Y11.726
G01 F400 X37.924 Y11.726
G01 F400 X37.924 Y12.574
G01 F400 X37.327 Y12.574
G01 F400 X37.327 Y14.107
G01 F400 X37.321 Y14.168
G01 F400 X37.300 Y14.233
G01 F400 X37.265 Y14.293
G01 F400 X37.226 Y14.336
G01 F400 X36.917 Y14.646
G01 F400 X36.864 Y14.684
G01 F400 X36.801 Y14.712
G01 F400 X36.734 Y14.726
G01 F400 X34.237 Y14.726
G01 F400 X34.237 Y14.778
G01 F400 X33.112 Y14.778
G00 Z3.000
G00  X22.576 Y14.689
G01 F750 Z0
G01 F400 Z-0.100
G01 F400 X22.576 Y14.326
G01 F400 X22.570 Y14.326
G01 F400 X22.570 Y14.667
G01 F400 X22.576 Y14.689
G00 Z3.000
G00  X24.624 Y14.689
G01 F750 Z0
G01 F400 Z-0.100
G01 F400 X24.630 Y14.667
G01 F400 X24.630 Y14.126
G01 F400 X24.624 Y14.126
G01 F400 X24.624 Y14.689
G00 Z3.000
G00  X20.626 Y14.580
G01 F750 Z0
G01 F400 Z-0.100
G01 F400 X21.167 Y14.580
G01 F400 X21.189 Y14.574
G01 F400 X20.626 Y14.574
G01 F400 X20.626 Y14.580
G00 Z3.000
G00  X21.274 Y14.489
G01 F750 Z0
G01 F400 Z-0.100
G01 F400 X21.280 Y14.467
G01 F400 X21.280 Y14.326
G01 F400 X21.274 Y14.326
G01 F400 X21.274 Y14.489
G00 Z3.000
G00  X19.420 Y14.468
G01 F750 Z0
G01 F400 Z-0.100
G01 F400 X19.426 Y14.462
G01 F400 X19.426 Y14.326
G01 F400 X19.420 Y14.326
G01 F400 X19.420 Y14.467
G01 F400 X19.420 Y14.468
G00 Z3.000
G00  X21.274 Y13.674
G01 F750 Z0
G01 F400 Z-0.100
G01 F400 X21.280 Y13.674
G01 F400 X21.280 Y13.533
G01 F400 X21.274 Y13.511
G01 F400 X21.274 Y13.674
G00 Z3.000
G00  X19.420 Y13.674
G01 F750 Z0
G01 F400 Z-0.100
G01 F400 X19.426 Y13.674
G01 F400 X19.426 Y13.511
G01 F400 X19.420 Y13.533
G01 F400 X19.420 Y13.674
G00 Z3.000
G00  X32.627 Y12.377
G01 F750 Z0
G01 F400 Z-0.100
G01 F400 X32.630 Y12.367
G01 F400 X32.630 Y11.876
G01 F400 X32.629 Y11.876
G01 F400 X32.627 Y12.049
G01 F400 X32.627 Y12.377
G00 Z3.000
G00  X13.863 Y12.312
G01 F750 Z0
G01 F400 Z-0.100
G01 F400 X15.697 Y12.312
G01 F400 X15.862 Y12.147
G01 F400 X15.862 Y10.113
G01 F400 X15.697 Y9.948
G01 F400 X15.420 Y9.948
G01 F400 X15.363 Y9.937
G01 F400 X15.297 Y9.900
G01 F400 X15.248 Y9.829
G01 F400 X15.232 Y9.762
G01 F400 X15.232 Y9.056
G01 F400 X15.242 Y8.998
G01 F400 X15.279 Y8.933
G01 F400 X15.350 Y8.883
G01 F400 X15.417 Y8.867
G01 F400 X40.683 Y8.867
G01 F400 X41.020 Y8.728
G01 F400 X41.105 Y8.642
G01 F400 X41.165 Y8.606
G01 F400 X41.223 Y8.594
G01 F400 X41.333 Y8.594
G01 F400 X41.539 Y8.388
G01 F400 X41.599 Y8.352
G01 F400 X41.657 Y8.340
G01 F400 X42.556 Y8.340
G01 F400 X42.623 Y8.357
G01 F400 X42.673 Y8.390
G01 F400 X43.082 Y8.799
G01 F400 X43.645 Y9.032
G01 F400 X44.255 Y9.032
G01 F400 X44.818 Y8.799
G01 F400 X45.249 Y8.368
G01 F400 X45.482 Y7.805
G01 F400 X45.482 Y7.195
G01 F400 X45.249 Y6.632
G01 F400 X44.818 Y6.201
G01 F400 X44.255 Y5.968
G01 F400 X43.645 Y5.968
G01 F400 X43.082 Y6.201
G01 F400 X42.651 Y6.632
G01 F400 X42.643 Y6.651
G01 F400 X42.594 Y6.714
G01 F400 X42.512 Y6.758
G01 F400 X41.654 Y6.760
G01 F400 X41.587 Y6.743
G01 F400 X41.537 Y6.710
G01 F400 X41.333 Y6.506
G01 F400 X40.467 Y6.506
G01 F400 X39.988 Y6.985
G01 F400 X39.928 Y7.021
G01 F400 X39.870 Y7.033
G01 F400 X16.171 Y7.033
G01 F400 X16.114 Y7.022
G01 F400 X16.048 Y6.985
G01 F400 X15.998 Y6.914
G01 F400 X15.982 Y6.847
G01 F400 X15.982 Y6.433
G01 F400 X15.817 Y6.268
G01 F400 X14.192 Y6.268
G01 F400 X14.125 Y6.251
G01 F400 X14.117 Y6.245
G01 F400 X12.701 Y6.242
G01 F400 X12.571 Y6.372
G01 F400 X12.511 Y6.408
G01 F400 X12.453 Y6.420
G01 F400 X12.376 Y6.420
G01 F400 X12.376 Y6.426
G01 F400 X13.024 Y6.426
G01 F400 X13.024 Y8.474
G01 F400 X12.376 Y8.474
G01 F400 X12.376 Y8.480
G01 F400 X12.405 Y8.480
G01 F400 X12.473 Y8.497
G01 F400 X12.523 Y8.530
G01 F400 X12.651 Y8.659
G01 F400 X13.684 Y8.659
G01 F400 X13.752 Y8.676
G01 F400 X13.801 Y8.708
G01 F400 X13.802 Y8.709
G01 F400 X13.970 Y8.709
G01 F400 X14.028 Y8.719
G01 F400 X14.093 Y8.756
G01 F400 X14.143 Y8.827
G01 F400 X14.159 Y8.894
G01 F400 X14.159 Y9.759
G01 F400 X14.148 Y9.817
G01 F400 X14.111 Y9.882
G01 F400 X14.040 Y9.932
G01 F400 X13.973 Y9.948
G01 F400 X13.863 Y9.948
G01 F400 X13.698 Y10.113
G01 F400 X13.698 Y12.147
G01 F400 X13.863 Y12.312
G00 Z3.000
G00  X13.856 Y12.154
G01 F750 Z0
G01 F400 Z-0.100
G01 F400 X13.856 Y10.106
G01 F400 X14.317 Y10.106
G01 F400 X14.317 Y8.474
G01 F400 X13.976 Y8.474
G01 F400 X13.976 Y6.426
G01 F400 X15.824 Y6.426
G01 F400 X15.824 Y7.194
G01 F400 X40.081 Y7.194
G01 F400 X40.323 Y6.784
G01 F400 X41.034 Y6.600
G01 F400 X41.578 Y6.921
G01 F400 X42.706 Y6.921
G01 F400 X42.838 Y6.692
G01 F400 X43.030 Y6.478
G01 F400 X43.263 Y6.309
G01 F400 X43.525 Y6.192
G01 F400 X43.806 Y6.133
G01 F400 X44.094 Y6.133
G01 F400 X44.375 Y6.192
G01 F400 X44.637 Y6.309
G01 F400 X44.870 Y6.478
G01 F400 X45.062 Y6.692
G01 F400 X45.206 Y6.941
G01 F400 X45.295 Y7.214
G01 F400 X45.325 Y7.500
G01 F400 X45.295 Y7.786
G01 F400 X45.206 Y8.059
G01 F400 X45.062 Y8.308
G01 F400 X44.870 Y8.522
G01 F400 X44.637 Y8.691
G01 F400 X44.375 Y8.808
G01 F400 X44.094 Y8.867
G01 F400 X43.806 Y8.867
G01 F400 X43.525 Y8.808
G01 F400 X43.263 Y8.691
G01 F400 X43.030 Y8.522
G01 F400 X42.838 Y8.308
G01 F400 X42.763 Y8.179
G01 F400 X41.558 Y8.179
G01 F400 X41.477 Y8.316
G01 F400 X41.112 Y8.410
G01 F400 X41.006 Y8.517
G01 F400 X40.880 Y8.608
G01 F400 X40.735 Y8.673
G01 F400 X40.579 Y8.706
G01 F400 X15.321 Y8.706
G01 F400 X15.165 Y8.673
G01 F400 X15.073 Y8.632
G01 F400 X15.073 Y10.106
G01 F400 X15.704 Y10.106
G01 F400 X15.704 Y12.154
G01 F400 X13.856 Y12.154
G00 Z3.000
G00  X32.624 Y11.174
G01 F750 Z0
G01 F400 Z-0.100
G01 F400 X32.630 Y11.174
G01 F400 X32.630 Y10.533
G01 F400 X32.624 Y10.511
G01 F400 X32.624 Y11.174
G00 Z3.000
G00  X8.076 Y8.842
G01 F750 Z0
G01 F400 Z-0.100
G01 F400 X8.170 Y8.842
G01 F400 X8.267 Y8.745
G01 F400 X8.076 Y8.794
G01 F400 X8.076 Y8.842
G00 Z3.000
G00  X7.430 Y8.842
G01 F750 Z0
G01 F400 Z-0.100
G01 F400 X7.524 Y8.842
G01 F400 X7.524 Y8.816
G01 F400 X7.233 Y8.644
G01 F400 X7.430 Y8.842
G00 Z3.000
G00  X7.006 Y8.417
G01 F750 Z0
G01 F400 Z-0.100
G01 F400 X6.956 Y8.226
G01 F400 X6.908 Y8.226
G01 F400 X6.908 Y8.320
G01 F400 X7.006 Y8.417
G00 Z3.000
G00  X6.908 Y7.674
G01 F750 Z0
G01 F400 Z-0.100
G01 F400 X6.934 Y7.674
G01 F400 X7.106 Y7.383
G01 F400 X6.908 Y7.580
G01 F400 X6.908 Y7.674
G00 Z3.000
G00  X8.263 Y7.194
G01 F750 Z0
G01 F400 Z-0.100
G01 F400 X8.306 Y7.194
G01 F400 X8.170 Y7.058
G01 F400 X8.076 Y7.058
G01 F400 X8.076 Y7.084
G01 F400 X8.263 Y7.194
G00 Z3.000
G00  X11.170 Y7.174
G01 F750 Z0
G01 F400 Z-0.100
G01 F400 X11.176 Y7.174
G01 F400 X11.176 Y6.511
G01 F400 X11.170 Y6.533
G01 F400 X11.170 Y7.174
G00 Z3.000
G00  X7.333 Y7.156
G01 F750 Z0
G01 F400 Z-0.100
G01 F400 X7.524 Y7.106
G01 F400 X7.524 Y7.058
G01 F400 X7.430 Y7.058
G01 F400 X7.333 Y7.156
G00 Z3.000
G00  X11.261 Y6.426
G01 F750 Z0
G01 F400 Z-0.100
G01 F400 X11.824 Y6.426
G01 F400 X11.824 Y6.420
G01 F400 X11.283 Y6.420
G01 F400 X11.261 Y6.426
G00 Z3.000
G00  X4.468 Y25.924
G01 F750 Z0
G01 F400 Z-0.100
G01 F400 X4.353 Y25.902
G01 F400 X4.212 Y25.822
G01 F400 X4.108 Y25.675
G01 F400 X4.076 Y25.541
G01 F400 X4.076 Y4.468
G01 F400 X4.098 Y4.353
G01 F400 X4.178 Y4.212
G01 F400 X4.325 Y4.108
G01 F400 X4.459 Y4.076
G01 F400 X47.532 Y4.076
G01 F400 X47.647 Y4.098
G01 F400 X47.788 Y4.178
G01 F400 X47.892 Y4.325
G01 F400 X47.924 Y4.459
G01 F400 X47.924 Y25.532
G01 F400 X47.902 Y25.647
G01 F400 X47.822 Y25.788
G01 F400 X47.675 Y25.892
G01 F400 X47.541 Y25.924
G01 F400 X4.468 Y25.924
G00 Z3.000
G00  X4.975 Y25.059
G01 F750 Z0
G01 F400 Z-0.100
G01 F400 X47.025 Y25.059
G01 F400 X47.059 Y25.025
G01 F400 X47.059 Y4.975
G01 F400 X47.025 Y4.941
G01 F400 X4.975 Y4.941
G01 F400 X4.941 Y4.975
G01 F400 X4.941 Y25.025
G01 F400 X4.975 Y25.059
G00 Z3.000
G00  X5.450 Y24.941
G01 F750 Z0
G01 F400 Z-0.100
G01 F400 X5.336 Y24.920
G01 F400 X5.195 Y24.840
G01 F400 X5.091 Y24.693
G01 F400 X5.059 Y24.558
G01 F400 X5.059 Y5.450
G01 F400 X5.081 Y5.336
G01 F400 X5.160 Y5.195
G01 F400 X5.307 Y5.091
G01 F400 X5.442 Y5.059
G01 F400 X46.550 Y5.059
G01 F400 X46.664 Y5.081
G01 F400 X46.806 Y5.160
G01 F400 X46.909 Y5.307
G01 F400 X46.941 Y5.442
G01 F400 X46.941 Y24.550
G01 F400 X46.919 Y24.664
G01 F400 X46.840 Y24.806
G01 F400 X46.693 Y24.909
G01 F400 X46.558 Y24.941
G01 F400 X37.649 Y24.941
G01 F400 X37.516 Y24.909
G01 F400 X37.370 Y24.809
G01 F400 X37.311 Y24.704
G01 F400 X37.298 Y24.717
G01 F400 X37.178 Y24.805
G01 F400 X37.034 Y24.869
G01 F400 X36.879 Y24.902
G01 F400 X17.171 Y24.902
G01 F400 X17.017 Y24.869
G01 F400 X16.872 Y24.805
G01 F400 X16.752 Y24.717
G01 F400 X16.742 Y24.708
G01 F400 X16.648 Y24.841
G01 F400 X16.473 Y24.937
G01 F400 X5.450 Y24.941
G00 Z3.000
G00  X30.784 Y23.398
G01 F750 Z0
G01 F400 Z-0.100
G01 F400 X36.486 Y23.398
G01 F400 X36.706 Y23.179
G01 F400 X36.608 Y23.200
G01 F400 X30.802 Y23.200
G01 F400 X30.810 Y23.298
G01 F400 X30.784 Y23.398
G00 Z3.000
G00  X21.979 Y22.600
G01 F750 Z0
G01 F400 Z-0.100
G01 F400 X22.558 Y22.600
G01 F400 X22.535 Y22.505
G01 F400 X22.535 Y22.248
G01 F400 X21.703 Y22.248
G01 F400 X21.703 Y20.898
G01 F400 X21.699 Y20.868
G01 F400 X21.699 Y19.302
G01 F400 X21.501 Y19.302
G01 F400 X21.501 Y22.122
G01 F400 X21.979 Y22.600
G00 Z3.000
G00  X34.512 Y22.100
G01 F750 Z0
G01 F400 Z-0.100
G01 F400 X36.321 Y22.100
G01 F400 X36.617 Y21.805
G01 F400 X36.571 Y21.826
G01 F400 X36.458 Y21.850
G01 F400 X34.526 Y21.850
G01 F400 X34.538 Y22.001
G01 F400 X34.512 Y22.100
G00 Z3.000
G00  X20.399 Y21.768
G01 F750 Z0
G01 F400 Z-0.100
G01 F400 X20.399 Y19.302
G01 F400 X20.128 Y19.302
G01 F400 X20.128 Y19.252
G01 F400 X20.112 Y19.252
G01 F400 X20.112 Y19.953
G01 F400 X20.198 Y19.953
G01 F400 X20.198 Y21.752
G01 F400 X20.284 Y21.736
G01 F400 X20.399 Y21.768
G00 Z3.000
G00  X34.529 Y20.750
G01 F750 Z0
G01 F400 Z-0.100
G01 F400 X36.101 Y20.750
G01 F400 X36.009 Y20.685
G01 F400 X35.962 Y20.598
G01 F400 X34.602 Y20.598
G01 F400 X34.602 Y18.426
G01 F400 X34.251 Y18.778
G01 F400 X34.251 Y20.472
G01 F400 X34.529 Y20.750
G00 Z3.000
G00  X38.209 Y20.213
G01 F750 Z0
G01 F400 Z-0.100
G01 F400 X38.338 Y20.084
G01 F400 X38.424 Y20.021
G01 F400 X38.529 Y19.975
G01 F400 X38.642 Y19.950
G01 F400 X40.508 Y19.950
G01 F400 X40.485 Y19.855
G01 F400 X40.485 Y18.800
G01 F400 X40.505 Y18.698
G01 F400 X39.727 Y18.698
G01 F400 X39.727 Y17.751
G01 F400 X39.712 Y17.766
G01 F400 X39.626 Y17.829
G01 F400 X39.521 Y17.876
G01 F400 X39.408 Y17.900
G01 F400 X39.273 Y17.900
G01 F400 X39.273 Y19.348
G01 F400 X38.257 Y19.348
G01 F400 X38.251 Y20.020
G01 F400 X38.241 Y20.115
G01 F400 X38.209 Y20.213
G00 Z3.000
G00  X33.149 Y20.053
G01 F750 Z0
G01 F400 Z-0.100
G01 F400 X33.149 Y18.853
G01 F400 X33.128 Y18.865
G01 F400 X33.098 Y18.866
G01 F400 X33.098 Y20.038
G01 F400 X33.149 Y20.053
G00 Z3.000
G00  X23.297 Y20.019
G01 F750 Z0
G01 F400 Z-0.100
G01 F400 X24.875 Y20.019
G01 F400 X24.954 Y19.940
G01 F400 X24.954 Y19.353
G01 F400 X24.974 Y19.250
G01 F400 X24.532 Y19.250
G01 F400 X24.532 Y19.302
G01 F400 X22.859 Y19.302
G01 F400 X22.859 Y18.300
G01 F400 X22.801 Y18.300
G01 F400 X22.801 Y19.953
G01 F400 X23.297 Y19.953
G01 F400 X23.297 Y20.019
G00 Z3.000
G00  X37.149 Y18.937
G01 F750 Z0
G01 F400 Z-0.100
G01 F400 X37.149 Y18.926
G01 F400 X37.116 Y18.929
G01 F400 X37.149 Y18.937
G00 Z3.000
G00  X36.901 Y18.924
G01 F750 Z0
G01 F400 Z-0.100
G01 F400 X36.934 Y18.921
G01 F400 X36.901 Y18.913
G01 F400 X36.901 Y18.924
G00 Z3.000
G00  X34.726 Y18.303
G01 F750 Z0
G01 F400 Z-0.100
G01 F400 X35.799 Y18.303
G01 F400 X35.799 Y17.798
G01 F400 X35.779 Y17.784
G01 F400 X35.660 Y17.651
G01 F400 X35.571 Y17.497
G01 F400 X35.516 Y17.327
G01 F400 X35.497 Y17.150
G01 F400 X35.509 Y17.042
G01 F400 X35.398 Y17.103
G01 F400 X35.226 Y17.118
G01 F400 X35.096 Y17.093
G01 F400 X35.001 Y17.040
G01 F400 X35.001 Y17.818
G01 F400 X34.991 Y17.915
G01 F400 X34.955 Y18.025
G01 F400 X34.897 Y18.125
G01 F400 X34.838 Y18.190
G01 F400 X34.726 Y18.303
G00 Z3.000
G00  X17.547 Y18.150
G01 F750 Z0
G01 F400 Z-0.100
G01 F400 X17.633 Y18.150
G01 F400 X17.610 Y18.055
G01 F400 X17.610 Y15.454
G01 F400 X17.547 Y15.392
G01 F400 X17.547 Y16.448
G01 F400 X15.253 Y16.448
G01 F400 X15.253 Y15.390
G01 F400 X15.204 Y15.390
G01 F400 X15.140 Y15.454
G01 F400 X15.140 Y18.046
G01 F400 X15.217 Y18.122
G01 F400 X15.253 Y18.129
G01 F400 X15.253 Y17.953
G01 F400 X17.547 Y17.953
G01 F400 X17.547 Y18.150
G00 Z3.000
G00  X33.731 Y17.741
G01 F750 Z0
G01 F400 Z-0.100
G01 F400 X33.899 Y17.572
G01 F400 X33.899 Y16.902
G01 F400 X32.889 Y16.902
G01 F400 X32.889 Y13.799
G01 F400 X34.460 Y13.799
G01 F400 X34.460 Y13.850
G01 F400 X36.449 Y13.850
G01 F400 X36.449 Y12.798
G01 F400 X35.852 Y12.798
G01 F400 X35.852 Y10.740
G01 F400 X35.348 Y10.740
G01 F400 X35.348 Y12.798
G01 F400 X33.390 Y12.798
G01 F400 X33.390 Y12.804
G01 F400 X33.369 Y12.918
G01 F400 X33.289 Y13.060
G01 F400 X33.142 Y13.164
G01 F400 X33.007 Y13.196
G01 F400 X32.851 Y13.196
G01 F400 X32.851 Y15.218
G01 F400 X32.840 Y15.315
G01 F400 X32.829 Y15.350
G01 F400 X32.840 Y15.385
G01 F400 X32.851 Y15.482
G01 F400 X32.851 Y17.413
G01 F400 X32.852 Y17.414
G01 F400 X32.881 Y17.505
G01 F400 X33.393 Y17.505
G01 F400 X33.526 Y17.536
G01 F400 X33.671 Y17.636
G01 F400 X33.731 Y17.741
G00 Z3.000
G00  X29.943 Y17.505
G01 F750 Z0
G01 F400 Z-0.100
G01 F400 X31.749 Y17.505
G01 F400 X31.749 Y16.902
G01 F400 X30.260 Y16.902
G01 F400 X30.260 Y16.850
G01 F400 X29.792 Y16.850
G01 F400 X29.800 Y16.855
G01 F400 X29.895 Y17.029
G01 F400 X29.899 Y17.461
G01 F400 X29.943 Y17.505
G00 Z3.000
G00  X22.801 Y17.200
G01 F750 Z0
G01 F400 Z-0.100
G01 F400 X22.859 Y17.200
G01 F400 X22.859 Y16.198
G01 F400 X24.532 Y16.198
G01 F400 X24.532 Y16.250
G01 F400 X24.871 Y16.250
G01 F400 X25.149 Y15.972
G01 F400 X25.149 Y15.459
G01 F400 X25.055 Y15.481
G01 F400 X22.751 Y15.481
G01 F400 X22.751 Y16.114
G01 F400 X22.752 Y16.116
G01 F400 X22.791 Y16.235
G01 F400 X22.801 Y16.332
G01 F400 X22.801 Y17.200
G00 Z3.000
G00  X34.966 Y16.335
G01 F750 Z0
G01 F400 Z-0.100
G01 F400 X35.049 Y16.288
G01 F400 X34.669 Y15.900
G01 F400 X34.602 Y15.900
G01 F400 X34.838 Y16.135
G01 F400 X34.897 Y16.201
G01 F400 X34.955 Y16.301
G01 F400 X34.966 Y16.335
G00 Z3.000
G00  X19.901 Y16.250
G01 F750 Z0
G01 F400 Z-0.100
G01 F400 X20.128 Y16.250
G01 F400 X20.128 Y16.198
G01 F400 X21.523 Y16.198
G01 F400 X21.649 Y16.072
G01 F400 X21.649 Y15.481
G01 F400 X19.901 Y15.481
G01 F400 X19.901 Y16.250
G00 Z3.000
G00  X29.451 Y13.850
G01 F750 Z0
G01 F400 Z-0.100
G01 F400 X30.260 Y13.850
G01 F400 X30.260 Y13.799
G01 F400 X31.744 Y13.799
G01 F400 X31.747 Y12.697
G01 F400 X30.553 Y12.697
G01 F400 X30.553 Y10.641
G01 F400 X30.048 Y10.640
G01 F400 X30.048 Y12.697
G01 F400 X29.451 Y12.697
G01 F400 X29.451 Y13.850
G00 Z3.000
G00  X19.573 Y13.203
G01 F750 Z0
G01 F400 Z-0.100
G01 F400 X21.034 Y13.203
G01 F400 X21.089 Y13.103
G01 F400 X21.285 Y12.906
G01 F400 X21.285 Y11.697
G01 F400 X19.547 Y11.697
G01 F400 X19.346 Y11.694
G01 F400 X19.365 Y11.775
G01 F400 X19.365 Y12.562
G01 F400 X19.332 Y12.693
G01 F400 X19.315 Y12.718
G01 F400 X19.315 Y12.956
G01 F400 X19.457 Y13.098
G01 F400 X19.484 Y13.111
G01 F400 X19.573 Y13.203
G00 Z3.000
G00  X22.565 Y12.703
G01 F750 Z0
G01 F400 Z-0.100
G01 F400 X24.585 Y12.703
G01 F400 X24.585 Y12.197
G01 F400 X22.565 Y12.197
G01 F400 X22.565 Y12.703
G00 Z3.000
G00  X38.148 Y12.060
G01 F750 Z0
G01 F400 Z-0.100
G01 F400 X38.308 Y12.033
G01 F400 X38.352 Y12.046
G01 F400 X38.352 Y11.950
G01 F400 X38.148 Y11.950
G01 F400 X38.148 Y12.060
G00 Z3.000
G00  X38.148 Y10.850
G01 F750 Z0
G01 F400 Z-0.100
G01 F400 X38.352 Y10.850
G01 F400 X38.352 Y10.795
G01 F400 X38.248 Y10.824
G01 F400 X38.148 Y10.806
G01 F400 X38.148 Y10.850
G00 Z3.000
G00  X13.753 Y8.446
G01 F750 Z0
G01 F400 Z-0.100
G01 F400 X13.753 Y6.468
G01 F400 X13.248 Y6.466
G01 F400 X13.248 Y8.435
G01 F400 X13.712 Y8.435
G01 F400 X13.753 Y8.446
G00 Z3.000
G00  X4.447 Y26.147
G01 F750 Z0
G01 F400 Z-0.100
G01 F400 X4.276 Y26.115
G01 F400 X4.058 Y25.992
G01 F400 X3.901 Y25.769
G01 F400 X3.853 Y25.567
G01 F400 X3.853 Y4.447
G01 F400 X3.885 Y4.276
G01 F400 X4.008 Y4.058
G01 F400 X4.231 Y3.901
G01 F400 X4.433 Y3.853
G01 F400 X47.553 Y3.853
G01 F400 X47.724 Y3.885
G01 F400 X47.942 Y4.008
G01 F400 X48.099 Y4.231
G01 F400 X48.147 Y4.433
G01 F400 X48.147 Y25.553
G01 F400 X48.115 Y25.724
G01 F400 X47.992 Y25.942
G01 F400 X47.769 Y26.099
G01 F400 X47.567 Y26.147
G01 F400 X4.447 Y26.147
G00 Z3.000
G00  X23.521 Y19.795
G01 F750 Z0
G01 F400 Z-0.100
G01 F400 X24.731 Y19.795
G01 F400 X24.731 Y19.525
G01 F400 X23.024 Y19.525
G01 F400 X23.024 Y19.729
G01 F400 X23.521 Y19.729
G01 F400 X23.521 Y19.795
G00 Z3.000
G00  X38.476 Y19.757
G01 F750 Z0
G01 F400 Z-0.100
G01 F400 X38.619 Y19.727
G01 F400 X40.262 Y19.727
G01 F400 X40.262 Y18.921
G01 F400 X39.504 Y18.921
G01 F400 X39.504 Y18.108
G01 F400 X39.496 Y18.109
G01 F400 X39.496 Y19.571
G01 F400 X38.478 Y19.571
G01 F400 X38.476 Y19.757
G00 Z3.000
G00  X35.172 Y18.079
G01 F750 Z0
G01 F400 Z-0.100
G01 F400 X35.576 Y18.079
G01 F400 X35.576 Y17.891
G01 F400 X35.479 Y17.783
G01 F400 X35.366 Y17.588
G01 F400 X35.296 Y17.374
G01 F400 X35.292 Y17.336
G01 F400 X35.224 Y17.342
G01 F400 X35.224 Y17.830
G01 F400 X35.210 Y17.962
G01 F400 X35.172 Y18.079
G00 Z3.000
G00  X15.364 Y17.729
G01 F750 Z0
G01 F400 Z-0.100
G01 F400 X17.386 Y17.729
G01 F400 X17.386 Y16.671
G01 F400 X15.364 Y16.671
G01 F400 X15.364 Y17.729
G00 Z3.000
G00  X33.676 Y17.368
G01 F750 Z0
G01 F400 Z-0.100
G01 F400 X33.676 Y17.125
G01 F400 X33.074 Y17.125
G01 F400 X33.074 Y17.281
G01 F400 X33.419 Y17.281
G01 F400 X33.618 Y17.329
G01 F400 X33.676 Y17.368
G00 Z3.000
G00  X30.121 Y17.281
G01 F750 Z0
G01 F400 Z-0.100
G01 F400 X31.526 Y17.281
G01 F400 X31.526 Y17.125
G01 F400 X30.120 Y17.125
G01 F400 X30.121 Y17.281
G00 Z3.000
G00  X24.755 Y16.027
G01 F750 Z0
G01 F400 Z-0.100
G01 F400 X24.779 Y16.027
G01 F400 X24.926 Y15.880
G01 F400 X24.926 Y15.705
G01 F400 X22.974 Y15.705
G01 F400 X22.974 Y15.975
G01 F400 X24.755 Y15.975
G01 F400 X24.755 Y16.027
G00 Z3.000
G00  X20.124 Y15.975
G01 F750 Z0
G01 F400 Z-0.100
G01 F400 X21.426 Y15.975
G01 F400 X21.426 Y15.705
G01 F400 X20.124 Y15.705
G01 F400 X20.124 Y15.975
G00 Z3.000
G00  X34.684 Y13.627
G01 F750 Z0
G01 F400 Z-0.100
G01 F400 X36.226 Y13.627
G01 F400 X36.226 Y13.021
G01 F400 X35.629 Y13.021
G01 F400 X35.629 Y10.964
G01 F400 X35.571 Y10.964
G01 F400 X35.571 Y13.021
G01 F400 X33.567 Y13.021
G01 F400 X33.459 Y13.214
G01 F400 X33.235 Y13.371
G01 F400 X33.074 Y13.409
G01 F400 X33.074 Y13.575
G01 F400 X34.684 Y13.575
G01 F400 X34.684 Y13.627
G00 Z3.000
G00  X29.674 Y13.627
G01 F750 Z0
G01 F400 Z-0.100
G01 F400 X30.037 Y13.627
G01 F400 X30.037 Y13.575
G01 F400 X31.521 Y13.575
G01 F400 X31.523 Y12.921
G01 F400 X30.329 Y12.921
G01 F400 X30.329 Y10.864
G01 F400 X30.271 Y10.864
G01 F400 X30.271 Y12.921
G01 F400 X29.674 Y12.921
G01 F400 X29.674 Y13.627
G00 Z3.000
G00  X19.667 Y12.979
G01 F750 Z0
G01 F400 Z-0.100
G01 F400 X20.902 Y12.979
G01 F400 X20.909 Y12.967
G01 F400 X21.062 Y12.814
G01 F400 X21.062 Y11.921
G01 F400 X19.588 Y11.921
G01 F400 X19.588 Y12.590
G01 F400 X19.539 Y12.784
G01 F400 X19.538 Y12.785
G01 F400 X19.538 Y12.864
G01 F400 X19.587 Y12.913
G01 F400 X19.617 Y12.927
G01 F400 X19.667 Y12.979
G00 Z3.000
G00  X22.788 Y12.479
G01 F750 Z0
G01 F400 Z-0.100
G01 F400 X24.362 Y12.479
G01 F400 X24.362 Y12.421
G01 F400 X22.788 Y12.421
G01 F400 X22.788 Y12.479
G00 Z3.000
G00  X13.471 Y8.212
G01 F750 Z0
G01 F400 Z-0.100
G01 F400 X13.529 Y8.212
G01 F400 X13.529 Y6.690
G01 F400 X13.471 Y6.690
G01 F400 X13.471 Y8.212
G00 Z3.000
G00 Z3.000
M05
M30
%