( PCB drills )
( Generated by Carbide Copper )
( Material Size )
( X= 70.000, Y= 100.000, Z= 1.550 )
()
G17
G21
G54
G90
M05
T1 M06
M03S10000
G00  X7.700 Y14.850
G00 F750 Z0
G01 F15000 Z-1.750
G00 Z3.000
G00  X44.650 Y19.050
G00 F750 Z0
G01 F15000 Z-1.750
G00 Z3.000
G00  X44.700 Y13.800
G00 F750 Z0
G01 F15000 Z-1.750
G00 Z3.000
G00  X43.950 Y7.500
G00 F750 Z0
G01 F15000 Z-1.750
G00 Z3.000
G00  X44.500 Y22.650
G00 F750 Z0
G01 F15000 Z-1.750
G00 Z3.000
T2 M06
G00  X7.500 Y21.400
G00 F750 Z0
G01 F15000 Z-1.750
G00 Z3.000
G00  X7.800 Y7.950
G00 F750 Z0
G01 F15000 Z-1.750
G00 Z3.000
G00  X41.400 Y22.750
G00 F750 Z0
G01 F15000 Z-1.750
G00 Z3.000
G00  X40.900 Y7.550
G00 F750 Z0
G01 F15000 Z-1.750
G00 Z3.000
T3 M06
G00  X28.600 Y20.550
G00 F750 Z0
G01 F15000 Z-1.750
G00 Z3.000
G00  X36.350 Y17.150
G00 F750 Z0
G01 F15000 Z-1.750
G00 Z3.000
G00 Z3.000
M05
M30
%