( PCB Cuts )
( Generated by Carbide Copper )
( Material Size )
( X= 70.000, Y= 100.000, Z= 1.550 )
()
M05
M6
M03S10000
G17
G21
G54
G90
G00  X4.820 Y26.714
G01 F750 Z0
G01 F200 Z-1.550
G01 F200 X4.468 Y26.639
G01 F200 X4.138 Y26.492
G01 F200 X3.847 Y26.281
G01 F200 X3.606 Y26.013
G01 F200 X3.426 Y25.701
G01 F200 X3.314 Y25.358
G01 F200 X3.286 Y25.083
G01 F200 X3.286 Y4.917
G01 F200 X3.314 Y4.642
G01 F200 X3.426 Y4.299
G01 F200 X3.606 Y3.987
G01 F200 X3.847 Y3.719
G01 F200 X4.138 Y3.508
G01 F200 X4.468 Y3.361
G01 F200 X4.820 Y3.286
G01 F200 X47.180 Y3.286
G01 F200 X47.532 Y3.361
G01 F200 X47.862 Y3.508
G01 F200 X48.153 Y3.719
G01 F200 X48.394 Y3.987
G01 F200 X48.574 Y4.299
G01 F200 X48.686 Y4.642
G01 F200 X48.715 Y4.917
G01 F200 X48.715 Y25.083
G01 F200 X48.686 Y25.358
G01 F200 X48.574 Y25.701
G01 F200 X48.394 Y26.013
G01 F200 X48.153 Y26.281
G01 F200 X47.862 Y26.492
G01 F200 X47.532 Y26.639
G01 F200 X47.180 Y26.714
G01 F200 X4.820 Y26.714
G00 Z3.000
G00 Z3.000
M05
M30
%